icons/themes/default/check-circle.svg

<svg viewBox="0 0 16 16" fill="none" xmlns="http://www.w3.org/2000/svg">
<path fill-rule="evenodd" clip-rule="evenodd" d="M8 15C11.866 15 15 11.866 15 8C15 4.13401 11.866 1 8 1C4.13401 1 1 4.13401 1 8C1 11.866 4.13401 15 8 15ZM7.40918 10.9717L11.4092 5.28809L10.5908 4.71191L6.93555 9.90527L5.35645 8.29688L5 8.64746L4.64355 8.99707L6.64355 11.0342L7.06348 11.4629L7.40918 10.9717Z" fill="currentColor" />
</svg>

<svg xmlns="http://www.w3.org/2000/svg" fill="none" viewBox="0 0 16 16">
  <path fill="currentColor" fill-rule="evenodd" d="M8 15A7 7 0 1 0 8 1a7 7 0 0 0 0 14Zm-.59-4.028 4-5.684-.82-.576-3.654 5.193-1.58-1.608-.356.35-.356.35 2 2.037.42.429.345-.491Z" clip-rule="evenodd"/>
</svg>
